X: 9
T: Cumbia Semana
O: U.S.A.
C: Fito Olivares 
F: http://www.youtube.com/watch?v=A4-8McI-e_4
F: http://www.youtube.com/watch?v=ijJKJ8FoQgw
W:transcribed by Jutta Weber-Karn
W:http://www.folkloretanznoten.de/
W:converted to abc notation without the lyrics
M: 4/4
L: 1/8
K: F clef=treble
P:A
A,DF|:"Dm"AABA BABA|"A"G2 E^C zA,CE|GGAG AGAG|[1 "Dm"F2 EDz A,DF:|[2"Dm"F2 ED zfdc|:
FDFA BABA|"A"G2 E^C z e^cA|G^CEG BABA|[1"Dm"F2 ED z fdA:|[2 "Dm" F2 EDz A,DF|
P:B
|:"Dm" A2 AA B AGF|"A"A2G2 z A,^CE|G2 GG AGFE|[1 "Dm" G2F2 z A,DF:|[2 G2 F2z BAB|
P:C
|:"Dm" DDFA zBAB|"A"Az2B ABAB|^CCEG zBAB|[1"Dm"Az2B ABAB:|[2 A2 F2z A,D F|
P:D
"Dm"A2 AA BA GF|"A"A2 G A, A,A,^CE|\
G2 GG AG FE|"Dm"G2 F2 z A,DF|
 AAAA BAGF| "A"A2 G2 z A,^CE|\
 G2GG AGFE|"Dm"A2 F2 z BAB|
P:E
|:DDFA zBAB|"A"Az2B ABAB|[1^CCEG zBAB|"Dm"AzB BABAB:|[2 ^CCEG zAGF|D2z2z ABG|
P:F
"Dm"A2FD "Gm"B2AG|"A"A2 E2 zBAG|A2^CE ABAG|"Dm"A2 F2 zBAG|
A2FD "Gm"B2AG| "A"A2E2 zBAG| A2DF GBAG|"Dm"A2F2z DFA|
P:G
|:D2F2A2BA|"A"zBAB A^CEG|^C2E2G2 BA|"Dm"zBAB ADFA:|D2F2B2 BA|"A"zBAB A^CEG|
^C2E2G2 BA|"Dm"zBAB ADFA|D2F2A2 BA|"A"zBAB A^CEG|^C2E2G2 BA|zAAA Az3:|



